!!!!SEGMENT: pl-kozmzk--mzk-m-137--009_cwiklicz-boleslaw-jan--czego-ty-jeczysz-ty-bujny-wietrze.krn
!!!cenid: 18xx:2967
!!!COM: Ćwiklicz, Bolesław Jan
!!!COM-rism: pe41023611
!!!CDT: ~1800-~1899
!!!CNT: Polish
!!!OTL: Czego ty jęczysz, ty, bujny wietrze
!!!PDT:
!!!AGN: Secular
!!!SMS-siglum: PL-KOZmzk
!!!SMS-shelfmark: mzk/m/137
!!!NIFC-rismID: 1001084050
!!!URL-scan: https://repozytorium.nifc.pl/islandora/object/pl-kozmzk%3A1738/datastream/PDF/view
!!!ONB-nifc:
!!!SMS-variant:
!!!SMS-altvar:
**kern	**text	**kern	**text	**dynam
*part1	*part1	*part1	*part1	*part1
*staff2	*staff2	*staff1	*staff1	*
*clefF4	*	*clefG2	*	*
*k[b-]	*	*k[b-]	*	*
*M6/8	*	*M6/8	*	*
=1	=1	=1	=1	=1
*^	*	*^	*	*
!	!	!	!LO:TX:a:t=Polskiej dziatwie.	!	!	!
!	!	!	!LO:TX:a:t=9. Czego ty jęczysz, ty bujny wietrze...	!	!	!
!LO:TX:a:t=Niezbyt prędko.	!	!	!LO:TX:a:t=Słowa M. Konopnickiej	!	!	!
8A/L	8D\L	(Cze-	8ff/L	8dd\L	Cze-	p
8A/	8E\	-go	8ee/	8cc#X\	-go	>
8A/J	8F\J	ty	8dd/J	8dd\J	ty	.
8G/L	8E\L	ję-	4cc#X/	4a\	ję-	.
8F/	8D\	-czysz,	.	.	.	.
8E/J	8C#X\J	ty,	8a/	8a\	-czysz,	]]
=2	=2	=2	=2	=2	=2	=2
!	!LO:TX:t=P:problem:błędne wyświetlanie łuku	!	!	!	!	!
4F/	(>8D\L	bu-	4dd/	4a\	ty,	mf <
.	8Cn\)	.	.	.	.	.
8D/	8BB-\J	-jny)	16f/LL	16d\LL	bu-	[
.	.	.	16g/JJ	16e\JJ	-jny	.
(8D/L	4AA\	.	4a/	4f\	wie-	>
8BBn/)	.	.	.	.	.	.
8C#X/J	8AA\	.	8a/	8e\	-trze	.
=3	=3	=3	=3	=3	=3	=3
8D/L	8BB-\L	.	8g/L	8e\L	I	] <
8Cn/	8AA\	.	8cc/	8e\	cze-	.
8C/J	8GG\J	.	8b-/J	8e\J	-go	[
4C/	4FF\	.	(4a/	(8f\L	tak	.
.	.	.	.	8e\)	.	.
!	!	!	!LO:TX:a:t=muzyka B. Ćwiklicza	!	!	!
8BB-/	8GG\	.	16g/LL)	8d\J	.	.
.	.	.	16f/JJ	.	za-	.
=4	=4	=4	=4	=4	=4	=4
(8AA/L	[4.AA\	.	(4f/	4d\	-wo-	>
8BBn/	.	.	.	.	.	.
8C#X/J)	.	.	8e/)	8e\	.	.
(4D/	8AA\L]	.	4.a/	(4f\	-dzisz?	.
.	(8BBnX\	.	.	.	.	.
8E/)	8C#X\J)	.	.	8a\)	.	.
!!LO:LB:g=original
=5	=5	=5	=5	=5	=5	=5
8A/L	8D\L	.	8ff/L	8dd\L	Cze-	] mf
8A/	8E\	.	8ee/	8cc#X\	-mu	>
8A/J	8F\J	.	8dd/J	8dd\J	nie	.
8G/L	8E\L	.	4cc#X/	4a\	sie-	.
8F/	8D\	.	.	.	.	.
8E/J	8C#X\J	.	8a/	8a\	-dzisz	.
=6	=6	=6	=6	=6	=6	=6
4F/	(8D\L	.	4dd/	4a\	w swo-	] f <
.	8Cn\)	.	.	.	.	.
8D/	8BB-\J	.	16f/LL	16d\LL	-jej	.
.	.	.	16g/JJ	16e\JJ	cha-	.
(8D/L	4AA\	.	4a/	4f\	-te-	[ >
8BBn/)	.	.	.	.	.	.
8C#X/J	8AA\	.	8a/	8e\	-czce,	.
=7	=7	=7	=7	=7	=7	=7
8D/L	8GG\L	.	8b-/L	8e\L	Ty-	] <
8D/	8AA\	.	8a/	8f\	lko	.
8D/J	8BB-\J	.	8g/J	8e\J	po	.
4Cn/	(8AA\L	.	(4cc/	(8f\L	po-	.
.	8GG\)	.	.	8e\)	.	.
8C/	8FF\J	.	16b-/LL)	8f\J	.	[
.	.	.	16a/JJ	.	-lu	.
=8	=8	=8	=8	=8	=8	=8
(4BB-/	(8GG\L	.	(4g/	4.d\	cho-	>
.	8EE\	.	.	.	.	.
8AA/)	8FF\J)	.	8d/)	.	.	.
(8GG/L	(8GG\L	.	4.e/	4.c#X\	-dzisz?	.
8AA/	8AA\	.	.	.	.	.
8BB-/J)	8BB-\J)	.	.	.	.	.
=9	=9	=9	=9	=9	=9	=9
!	!	!	!	!	!	!LO:DY:a
8D/L	(16AA\LL	.	8f/L	8d\L	Oj,	] mf <
.	16BB-\)	.	.	.	.	.
8.BBn/	(16AA\	.	8.g/	8.d\	te-	.
.	16BB-X\)	.	.	.	.	.
.	(16AA\	.	.	.	.	.
16C#X/Jk	16BB-\JJ)	.	16a/Jk	16e\Jk	-go	.
!	!	!	!LO:TX:t=P:problem:belkowanie przez łamanie systemu	!	!	!
!LO:TX:t=P:problem:belkowanie przez łamanie systemu	!	!	!LO:TX:t=P:problem:belkowanie przez łamanie systemu	!	!	!
!	!	!	!LO:TX:t=P:problem:łamanie systemu w środku taktu	!	!	!
!LO:TX:t=P:problem:łamanie systemu w środku taktu	!	!	!	!LO:TX:t=P:problem:łamanie systemu w środku taktu	!	!
(8D/L	(16AA\LL	.	(8a/L	(8f\L	ję-	.
!LO:TX:t=P:problem:belkowanie przez łamanie systemu	!	!	!	!	!	!
!	!LO:TX:t=P:problem:łamanie systemu w środku taktu	!	!	!	!	!
.	16BB-\	.	.	.	.	.
!!LO:LB:g=original
8BBn/)	16AA\	.	8g/)	8d\)	.	[ >
.	16BB-X\)	.	.	.	.	.
8C#X/J	(16AA\	.	8f/J	8c#X\J	-czę,	.
.	16BB-\JJ)	.	.	.	.	.
=10	=10	=10	=10	=10	=10	=10
8D/L	(16AA\LL	.	8g/L	8e\L	te-	] <
.	16BB-\)	.	.	.	.	.
8.D/	(16AA\	.	8.a/	8.f\	-go	.
.	16BB-\)	.	.	.	.	.
.	(16AA\	.	.	.	.	.
16D/Jk	16BB-\JJ)	.	16b-/Jk	16g\Jk	za-	.
4D/	(16AA\LL	.	(8b-/L	(8g\L	-wo-	[
.	16BB-\	.	.	.	.	.
.	16AA\	.	8a/)	8f\)	.	>
.	16BB-\)	.	.	.	.	.
8D/	(16AA\	.	8g/J	8e\J	-dzę,	.
.	16BB-\JJ)	.	.	.	.	.
=11	=11	=11	=11	=11	=11	=11
8D/L	(16AA\LL	.	8a/L	8f\L	Mo-	] <
.	16BB-\)	.	.	.	.	.
8D/	(16AA\	.	8bn/	8f\	-je	.
.	16BB-\)	.	.	.	.	.
8E/J	(16AA\	.	8cc#X/J	8a\J	ty	.
.	16BB-\JJ)	.	.	.	.	.
!	!	!	!	!LO:TX:t=P:problem:błędne wyświetlanie łuku	!	!
(<8A/L	(16AA\LL	.	4ff/	(>8dd\L	dro-	[ f
.	16BB-\	.	.	.	.	.
8G#X/)	16AA\	.	.	8bn\)	.	.
.	16BB-\)	.	.	.	.	.
8Gn/J	(16AA\	.	8ee/	8cc#X\J	gie	.
.	16BB-\JJ)	.	.	.	.	.
=12	=12	=12	=12	=12	=12	=12
(8F/L	(16AA\LL	.	(4dd/	(8a\L	dzie-	>
.	16BB-\	.	.	.	.	.
8D/	16AA\	.	.	8f\	.	.
.	16BB-\	.	.	.	.	.
8E/J)	16AA\	.	8cc#X/)	8g\J)	.	.
.	16BB-\JJ)	.	.	.	.	.
4F/	(16AA\LL	.	4dd/	4a\	-cię.	.
.	16BB-\	.	.	.	.	.
.	16AA\	.	.	.	.	.
.	16BB-\)	.	.	.	.	.
8A/	(16BBn\	.	8ee/	8a\	Że	] p <
.	16C#X\JJ)	.	.	.	.	.
!!LO:LB:g=original
=13	=13	=13	=13	=13	=13	=13
4A/	(8D\L	.	(8ff/L	(8dd\L	nie-	[ >
.	8E\)	.	8ee/)	8cc#X\)	.	.
8A/	8F\J	.	8dd/J	8dd\J	-mam	.
8G/L	8E\L	(cha-	4cc#X/	4a\	cha-	.
8F/	8D\	-tki,	.	.	.	.
8E/J	8C#X\J	ro-	8a/	8a\	-tki,	.
=14	=14	=14	=14	=14	=14	=14
4F/	(8D\L	-dzo-	4dd/	4a\	cha-	] mf <
.	8Cn\)	.	.	.	.	.
8D/	8BB-\J	-nej	16f/LL	16d\LL	-tki	[
.	.	.	16g/JJ	16e\JJ	ro-	.
8D/L	4AA\	cha-	4a/	4f\	-dzo-	>
8BBn/	.	.	.	.	.	.
8C#X/J	8AA\	-tki)	8a/	8e\	-nej	.
=15	=15	=15	=15	=15	=15	=15
8D/L	8BB-\L	.	8g/L	8e\L	I	] <
8Cn/	8AA\	.	8cc/	8e\	tu-	.
8C/J	8GG\J	.	8b-/J	8e\J	-łam	.
4C/	4FF\	.	(4a/	(8f\L	się	[
.	.	.	.	8e\)	.	.
8BB-/	8GG\	.	16g/LL)	8d\J	.	.
.	.	.	16e/JJ	.	po	.
=16	=16	=16	=16	=16	=16	=16
(8AA/L	8AA\L	.	(4f/	(4d\	świe-	>
8BBn/	8GG#X\	.	.	.	.	.
8AA/J)	8GGn\J	.	8e/)	8c#X\)	.	.
!	!	!	!	!LO:TX:t=P:problem:błędne wyświetlanie łuku	!	!
(8AA/L	(8FF\L	.	4.d/	(>8d\L	-cie.	.
8GG/	8EE\	.	.	8B-\	.	.
8AA;/J)	8DD;\J)	.	.	8A;;\J)	.	]
*v	*v	*	*	*	*	*
*	*	*v	*v	*	*
==	==	==	==	==
*-	*-	*-	*-	*-
!!!system-decoration: [(s1,s2)]
!!!ENC: Marcin Jachim
!!!END: 2021-08-12
!!!ENC: Kamil Watkowski
!!!END: 2021-09-08
!!!RDF**kern: > = above
!!!RDF**kern: < = below
